X:1
T:The Fishes' Lamentation
M:3/4
L:1/4
K:C
 E| G3/2 A/2 G| E C E| A B A| D2 B,| B, D F| B2 A| G A F| E E F| G3/2- A/2 G|\
 E C2| A3/2- B/2 A| F D2| B, D F| B2 A| G F3/2- B,/2| D C||

